Simply-Cyan-Circles/scalable/apps/mtpaint.svg

<svg xmlns="http://www.w3.org/2000/svg" width="48" height="48" viewBox="0 0 12.7 12.7"><path fill="#5beedc" d="M6.344.073a6.29 6.29 0 0 0-6.29 6.29 6.29 6.29 0 0 0 6.29 6.288 6.29 6.29 0 0 0 6.29-6.289 6.29 6.29 0 0 0-6.29-6.29zm-.018.936a5.407 5.407 0 0 1 5.407 5.407 5.407 5.407 0 0 1-5.407 5.407A5.407 5.407 0 0 1 .92 6.416 5.407 5.407 0 0 1 6.326 1.01zM3.678 2.514l-.879.884.013 5.201 1.763-.004-.012-5.202-.885-.879zm5.32 0l-.88.884.014 5.201 1.762-.004-.012-5.202-.884-.879zm-3.19 0a.333.333 0 0 0-.332.332l-.003.86 1.763.005.002-.861a.333.333 0 0 0-.331-.333l-1.098-.002zm-.336 1.69l-.013 5.203.88.883.883-.88.013-5.201-1.763-.004zm-.896 4.89l-1.762.004.002.86c0 .183.15.332.333.332l1.098-.002c.184 0 .333-.15.332-.334l-.003-.86zm5.32 0l-1.763.004.002.86c0 .183.15.332.333.332l1.098-.002c.184 0 .333-.15.332-.334l-.002-.86z"/></svg>

<?xml version="1.0" encoding="UTF-8" standalone="no"?>
<svg
   xmlns:dc="http://purl.org/dc/elements/1.1/"
   xmlns:cc="http://creativecommons.org/ns#"
   xmlns:rdf="http://www.w3.org/1999/02/22-rdf-syntax-ns#"
   xmlns:svg="http://www.w3.org/2000/svg"
   xmlns="http://www.w3.org/2000/svg"
   xmlns:sodipodi="http://sodipodi.sourceforge.net/DTD/sodipodi-0.dtd"
   xmlns:inkscape="http://www.inkscape.org/namespaces/inkscape"
   width="48"
   height="48"
   viewBox="0 0 12.7 12.7"
   version="1.1"
   id="svg4"
   sodipodi:docname="mtpaint.svg"
   inkscape:version="0.92.4 (5da689c313, 2019-01-14)">
  <metadata
     id="metadata10">
    <rdf:RDF>
      <cc:Work
         rdf:about="">
        <dc:format>image/svg+xml</dc:format>
        <dc:type
           rdf:resource="http://purl.org/dc/dcmitype/StillImage" />
        <dc:title></dc:title>
      </cc:Work>
    </rdf:RDF>
  </metadata>
  <defs
     id="defs8" />
  <sodipodi:namedview
     pagecolor="#ffffff"
     bordercolor="#666666"
     borderopacity="1"
     objecttolerance="10"
     gridtolerance="10"
     guidetolerance="10"
     inkscape:pageopacity="0"
     inkscape:pageshadow="2"
     inkscape:window-width="1087"
     inkscape:window-height="480"
     id="namedview6"
     showgrid="false"
     inkscape:zoom="4.9166667"
     inkscape:cx="2.1355932"
     inkscape:cy="24"
     inkscape:window-x="0"
     inkscape:window-y="25"
     inkscape:window-maximized="0"
     inkscape:current-layer="svg4" />
  <path
     d="m 6.344,0.073 a 6.29,6.29 0 0 0 -6.29,6.29 6.29,6.29 0 0 0 6.29,6.288 6.29,6.29 0 0 0 6.29,-6.289 6.29,6.29 0 0 0 -6.29,-6.29 z M 6.326,1.009 A 5.407,5.407 0 0 1 11.733,6.416 5.407,5.407 0 0 1 6.326,11.823 5.407,5.407 0 0 1 0.92,6.416 5.407,5.407 0 0 1 6.326,1.01 Z M 3.678,2.514 2.799,3.398 2.812,8.599 4.575,8.595 4.563,3.393 Z m 5.32,0 L 8.118,3.398 8.132,8.599 9.894,8.595 9.882,3.393 Z m -3.19,0 A 0.333,0.333 0 0 0 5.476,2.846 L 5.473,3.706 7.236,3.711 7.238,2.85 A 0.333,0.333 0 0 0 6.907,2.517 L 5.809,2.515 Z M 5.472,4.204 5.459,9.407 6.339,10.29 7.222,9.41 7.235,4.209 5.472,4.205 Z m -0.896,4.89 -1.762,0.004 0.002,0.86 c 0,0.183 0.15,0.332 0.333,0.332 l 1.098,-0.002 c 0.184,0 0.333,-0.15 0.332,-0.334 z m 5.32,0 -1.763,0.004 0.002,0.86 c 0,0.183 0.15,0.332 0.333,0.332 l 1.098,-0.002 c 0.184,0 0.333,-0.15 0.332,-0.334 z"
     id="path2"
     inkscape:connector-curvature="0"
     style="fill:#5beedc" />
</svg>
